static/assets/images/networks/moonriver.svg

<svg width="256" height="256" viewBox="0 0 256 256" fill="none" xmlns="http://www.w3.org/2000/svg">
<path fill-rule="evenodd" clip-rule="evenodd" d="M186.848 99.6251C187.486 100.946 188.079 102.288 188.627 103.647C188.285 102.561 187.661 101.239 186.848 99.6251ZM144.898 116.7C141.721 117.61 142.987 118.968 147.667 119.669C153.366 120.524 176.458 119.894 177.496 118.855C177.699 118.651 177.813 118.375 177.813 118.087C177.813 117.8 177.7 117.524 177.497 117.319C176.634 116.454 147.675 115.904 144.898 116.7ZM123.475 124.083C116.278 124.688 113.367 125.553 114.551 126.738C114.803 126.99 119.373 127.473 124.706 127.813C138.279 128.677 141.559 129.26 140.249 130.57C139.636 131.183 130.719 132.003 119.5 132.477C100.772 133.27 95.0654 134.349 99.6714 136.229C100.751 136.671 116.841 137.031 135.426 137.031C154.012 137.031 170.102 136.671 171.181 136.229C175 134.671 171.113 133.358 160.053 132.473C144.585 131.235 143.296 129.44 156.759 127.889C162.597 127.217 164.461 126.337 162.437 125.209C160.433 124.093 132.843 123.294 123.475 124.083ZM171.266 125.166L169.218 126.059L171.266 126.938C173.786 128.017 188.726 128.106 189.784 127.047C189.987 126.844 190.102 126.569 190.102 126.282C190.103 125.995 189.99 125.719 189.787 125.515C188.672 124.4 173.671 124.118 171.266 125.166ZM89.3249 142.537C83.6806 142.944 78.4561 143.651 77.7158 144.109C74.5414 146.071 79.4166 147.136 95.7054 148.04C112.603 148.978 173.645 148.298 179.245 147.11C183.184 146.275 182.166 144.355 177.326 143.488C171.435 142.432 101.304 141.675 89.3249 142.537Z" fill="black"/>
<path fill-rule="evenodd" clip-rule="evenodd" d="M144.898 116.7C141.721 117.61 142.987 118.968 147.667 119.669C153.366 120.524 176.458 119.894 177.496 118.855C177.699 118.651 177.813 118.375 177.813 118.087C177.813 117.8 177.7 117.524 177.497 117.319C176.634 116.454 147.675 115.904 144.898 116.7ZM123.475 124.083C116.278 124.688 113.367 125.553 114.551 126.738C114.803 126.99 119.373 127.473 124.706 127.813C138.279 128.677 141.559 129.26 140.249 130.57C139.636 131.183 130.719 132.003 119.5 132.477C100.772 133.27 95.0654 134.349 99.6714 136.229C100.751 136.671 116.841 137.031 135.426 137.031C154.012 137.031 170.102 136.671 171.181 136.229C175 134.671 171.113 133.358 160.053 132.473C144.585 131.235 143.296 129.44 156.759 127.889C162.597 127.217 164.461 126.337 162.437 125.209C160.433 124.093 132.843 123.294 123.475 124.083ZM171.266 125.166L169.218 126.059L171.266 126.938C173.786 128.017 188.726 128.106 189.784 127.047C189.987 126.844 190.102 126.569 190.102 126.282C190.103 125.995 189.99 125.719 189.787 125.515C188.672 124.4 173.671 124.118 171.266 125.166ZM89.3249 142.537C83.6806 142.944 78.4561 143.651 77.7158 144.109C74.5414 146.071 79.4166 147.136 95.7054 148.04C112.603 148.978 173.645 148.298 179.245 147.11C183.184 146.275 182.166 144.355 177.326 143.488C171.435 142.432 101.304 141.675 89.3249 142.537Z" fill="white"/>
<path fill-rule="evenodd" clip-rule="evenodd" d="M67.0568 155.232C62.4416 145.251 61.9962 134.71 62.7356 123.736C63.475 112.762 66.9616 102.151 72.8737 92.8823C78.7859 83.6137 86.933 75.986 96.5636 70.7029C106.194 65.4198 116.998 62.6515 127.978 62.6535C138.742 62.6508 149.34 65.3104 158.831 70.3962C168.322 75.482 176.414 82.8366 182.386 91.8072C183.941 94.1425 185.339 96.5685 186.576 99.0691C186.633 99.1847 186.69 99.3004 186.747 99.4163C186.75 99.4233 186.754 99.4304 186.757 99.4375C186.787 99.5 186.818 99.5624 186.848 99.6251C187.661 101.239 188.285 102.561 188.627 103.647C189.848 107.533 187.461 108.413 177.227 108.871C166.48 109.352 163.384 110.033 164.927 111.577C165.288 111.938 171.157 112.463 177.967 112.744L178.223 112.755C187.058 113.118 190.749 113.27 192.288 116.264C193.393 118.414 193.388 122.029 193.38 128.238L193.38 128.488C193.367 138.692 191.732 147.926 188.892 153.829C187.287 157.165 183.742 159.532 178.009 161.057C176.53 161.451 174.907 161.788 173.133 162.072C168.727 162.778 164.473 163.712 163.679 164.149C161.097 165.57 165.744 167.086 175.766 168.091C180.944 168.61 185.474 169.33 185.835 169.691C187.713 171.569 182.815 172.735 169.535 173.573C151.294 174.724 144.909 175.619 144.424 177.093C143.897 178.698 146.911 179.346 160.995 180.656C173.658 181.834 177.922 182.829 177.922 184.602C177.922 186.84 170.558 187.207 125.698 187.207C89.0637 187.207 78.2657 186.91 75.1722 185.817C72.6664 184.931 71.5933 184.071 72.2179 183.446C73.5973 182.067 90.0796 180.618 105.218 180.545C117.886 180.485 131.429 179.258 132.624 178.063C134.699 175.987 128.922 175.053 106.569 173.85C104.001 173.712 101.695 173.589 99.625 173.478C83.6964 172.627 81.7135 172.521 81.5937 171.993C81.5767 171.918 81.5973 171.834 81.6209 171.739C81.6424 171.651 81.6664 171.554 81.6664 171.445C81.6664 169.415 86.5652 168.986 116.994 168.35C146.437 167.734 154.85 166.874 151.524 164.818C150.94 164.458 144.848 163.703 137.986 163.143C131.125 162.583 125.052 161.841 124.491 161.494C121.438 159.607 127.327 158.663 146.143 158.024C165.653 157.362 168.974 156.925 167.293 155.245C164.97 152.921 93.6083 152.908 91.2848 155.232C89.8379 156.678 91.9412 157.276 101.852 158.235C121.2 160.108 115.49 162.631 91.9064 162.631C83.7263 162.631 78.4581 162.421 74.9317 161.731C70.9151 160.946 68.4456 158.235 67.0568 155.232ZM147.667 119.669C142.987 118.968 141.721 117.61 144.898 116.7C147.675 115.904 176.634 116.454 177.497 117.319C177.7 117.524 177.813 117.8 177.813 118.087C177.813 118.375 177.699 118.651 177.496 118.855C176.458 119.894 153.366 120.524 147.667 119.669ZM114.551 126.738C113.367 125.553 116.278 124.688 123.475 124.083C132.843 123.294 160.433 124.093 162.437 125.209C164.461 126.337 162.597 127.217 156.759 127.889C143.296 129.44 144.585 131.235 160.053 132.473C171.113 133.358 175 134.671 171.181 136.229C170.102 136.671 154.012 137.031 135.426 137.031C116.841 137.031 100.751 136.671 99.6714 136.229C95.0654 134.349 100.772 133.27 119.5 132.477C130.719 132.003 139.636 131.183 140.249 130.57C141.559 129.26 138.279 128.677 124.706 127.813C119.373 127.473 114.803 126.99 114.551 126.738ZM169.218 126.059L171.266 125.166C173.671 124.118 188.672 124.4 189.787 125.515C189.99 125.719 190.103 125.995 190.102 126.282C190.102 126.569 189.987 126.844 189.784 127.047C188.726 128.106 173.786 128.017 171.266 126.938L169.218 126.059ZM77.7158 144.109C78.4561 143.651 83.6806 142.944 89.3249 142.537C101.304 141.675 171.435 142.432 177.326 143.488C182.166 144.355 183.184 146.275 179.245 147.11C173.645 148.298 112.603 148.978 95.7054 148.04C79.4166 147.136 74.5414 146.071 77.7158 144.109Z" fill="black"/>
<path fill-rule="evenodd" clip-rule="evenodd" d="M211.712 156.97C214.815 147.939 216.5 138.243 216.5 128.154C216.5 79.1895 176.865 39.5 128 39.5C79.1207 39.5 39.5 79.1895 39.5 128.154C39.4899 138.187 41.1841 148.149 44.5099 157.614C45.5 160.431 41.1641 163.616 41.1641 163.616C41.1641 163.616 39.8743 164.93 39.5184 165.509C38.1739 167.695 39.5965 169.179 43.9801 170.431C49.4749 172 52.4537 174.329 50.93 175.867C50.332 176.473 47.4648 178.119 44.5587 179.527C35.0529 184.133 37.0333 185.955 53.9641 188.18C60.2126 189 65.7759 189.952 66.3269 190.293C68.4476 191.602 67.1532 193.541 62.7224 195.694C53.2637 200.289 57.3802 202.33 80.4591 204.488C89.0873 205.294 96.4294 206.237 96.7745 206.582C98.0729 207.88 95.2671 209.063 88.4166 210.108C81.6326 211.142 78.5053 212.547 79.8959 213.938C80.2543 214.296 83.2188 215.269 86.4833 216.099C94.4756 218.131 145.325 219.155 157.505 217.529C168.789 216.023 173.826 214.576 173.826 212.84C173.826 211.459 172.293 210.971 164.078 209.739C161.813 209.4 159.332 208.734 158.563 208.259C155.829 206.569 161.033 205.246 176.51 203.697C184.921 202.854 192.597 201.861 193.567 201.489C196.668 200.299 195.467 197.945 190.722 195.911C185.878 193.835 184.737 191.367 188.124 190.291C189.229 189.94 195.735 188.795 202.58 187.748C209.425 186.699 215.528 185.339 216.142 184.725C217.777 183.09 215.273 181.115 208.977 179.08C199.446 175.997 199.68 173.854 209.87 170.934C213.08 170.013 216.01 168.768 216.382 168.167C216.753 167.565 215.835 165.796 214.341 164.236C214.341 164.236 212.263 161.917 211.749 160.963C211.235 160.01 211.091 158.756 211.712 156.97ZM67.0568 155.232C62.4416 145.251 61.9962 134.71 62.7356 123.736C63.475 112.762 66.9616 102.151 72.8737 92.8823C78.7859 83.6137 86.933 75.986 96.5636 70.7029C106.194 65.4198 116.998 62.6515 127.978 62.6535C138.742 62.6508 149.34 65.3104 158.831 70.3962C168.322 75.482 176.414 82.8366 182.386 91.8072C183.941 94.1425 185.339 96.5685 186.576 99.0691C186.633 99.1847 186.69 99.3004 186.747 99.4163L186.757 99.4375C186.787 99.5 186.818 99.5624 186.848 99.6251C187.661 101.239 188.285 102.561 188.627 103.647C189.848 107.533 187.461 108.413 177.227 108.871C166.48 109.352 163.384 110.033 164.927 111.577C165.288 111.938 171.157 112.463 177.967 112.744L178.223 112.755C187.058 113.118 190.749 113.27 192.288 116.264C193.393 118.414 193.388 122.029 193.38 128.238L193.38 128.488C193.367 138.692 191.732 147.926 188.892 153.829C187.287 157.165 183.742 159.532 178.009 161.057C176.53 161.451 174.907 161.788 173.133 162.072C168.727 162.778 164.473 163.712 163.679 164.149C161.097 165.57 165.744 167.086 175.766 168.091C180.944 168.61 185.474 169.33 185.835 169.691C187.713 171.569 182.815 172.735 169.535 173.573C151.294 174.724 144.909 175.619 144.424 177.093C143.897 178.698 146.911 179.346 160.995 180.656C173.658 181.834 177.922 182.829 177.922 184.602C177.922 186.84 170.558 187.207 125.698 187.207C89.0637 187.207 78.2657 186.91 75.1722 185.817C72.6664 184.931 71.5933 184.071 72.2179 183.446C73.5973 182.067 90.0796 180.618 105.218 180.545C117.886 180.485 131.429 179.258 132.624 178.063C134.699 175.987 128.922 175.053 106.569 173.85C104.001 173.712 101.695 173.589 99.625 173.478C83.6964 172.627 81.7135 172.521 81.5937 171.993C81.5767 171.918 81.5973 171.834 81.6209 171.739C81.6424 171.651 81.6664 171.554 81.6664 171.445C81.6664 169.415 86.5652 168.986 116.994 168.35C146.437 167.734 154.85 166.874 151.524 164.818C150.94 164.458 144.848 163.703 137.986 163.143C131.125 162.583 125.052 161.841 124.491 161.494C121.438 159.607 127.327 158.663 146.143 158.024C165.653 157.362 168.974 156.925 167.293 155.245C164.97 152.921 93.6083 152.908 91.2848 155.232C89.8379 156.678 91.9412 157.276 101.852 158.235C121.2 160.108 115.49 162.631 91.9064 162.631C83.7263 162.631 78.4581 162.421 74.9317 161.731C70.9151 160.946 68.4456 158.235 67.0568 155.232ZM99.7215 200.173C87.9425 198.68 86.26 196.022 96.3208 194.798C99.2433 194.443 111.772 194.096 124.162 194.028C153.982 193.864 165.709 195.561 159.344 199.118C156.245 200.851 111.339 201.645 99.7215 200.173Z" fill="white"/>
<path fill-rule="evenodd" clip-rule="evenodd" d="M256 128C256 198.692 198.692 256 128 256C57.3075 256 0 198.692 0 128C0 57.3075 57.3075 0 128 0C198.692 0 256 57.3075 256 128ZM216.5 128.154C216.5 138.243 214.815 147.939 211.712 156.97C211.091 158.756 211.235 160.01 211.749 160.963C212.263 161.917 214.341 164.236 214.341 164.236C215.835 165.796 216.753 167.565 216.382 168.167C216.01 168.768 213.08 170.013 209.87 170.934C199.68 173.854 199.446 175.997 208.977 179.08C215.273 181.115 217.777 183.09 216.142 184.725C215.528 185.339 209.425 186.699 202.58 187.748C195.735 188.795 189.229 189.94 188.124 190.291C184.737 191.367 185.878 193.835 190.722 195.911C195.467 197.945 196.668 200.299 193.567 201.489C192.597 201.861 184.921 202.854 176.51 203.697C161.033 205.246 155.829 206.569 158.563 208.259C159.332 208.734 161.813 209.4 164.078 209.739C172.293 210.971 173.826 211.459 173.826 212.84C173.826 214.576 168.789 216.023 157.505 217.529C145.325 219.155 94.4756 218.131 86.4833 216.099C83.2188 215.269 80.2543 214.296 79.8959 213.938C78.5053 212.547 81.6326 211.142 88.4166 210.108C95.2671 209.063 98.0729 207.88 96.7745 206.582C96.4294 206.237 89.0873 205.294 80.4591 204.488C57.3802 202.33 53.2637 200.289 62.7224 195.694C67.1532 193.541 68.4476 191.602 66.3269 190.293C65.7759 189.952 60.2126 189 53.9641 188.18C37.0333 185.955 35.0529 184.133 44.5587 179.527C47.4648 178.119 50.332 176.473 50.93 175.867C52.4537 174.329 49.4749 172 43.9801 170.431C39.5965 169.179 38.1739 167.695 39.5184 165.509C39.8743 164.93 41.1641 163.616 41.1641 163.616C41.1641 163.616 45.5 160.431 44.5099 157.614C41.1841 148.149 39.4899 138.187 39.5 128.154C39.5 79.1895 79.1207 39.5 128 39.5C176.865 39.5 216.5 79.1895 216.5 128.154Z" fill="black"/>
<path d="M96.3208 194.798C86.26 196.022 87.9425 198.68 99.7215 200.173C111.339 201.645 156.245 200.851 159.344 199.118C165.709 195.561 153.982 193.864 124.162 194.028C111.772 194.096 99.2433 194.443 96.3208 194.798Z" fill="black"/>
</svg>

<svg xmlns="http://www.w3.org/2000/svg" fill="none" viewBox="0 0 256 256"><path fill="#000" fill-rule="evenodd" d="M186.848 99.625a66 66 0 0 1 1.779 4.022c-.342-1.086-.966-2.408-1.779-4.022m-41.95 17.075c-3.177.91-1.911 2.268 2.769 2.969 5.699.855 28.791.225 29.829-.814a1.09 1.09 0 0 0 .001-1.536c-.863-.865-29.822-1.415-32.599-.619m-21.423 7.383c-7.197.605-10.108 1.47-8.924 2.655.252.252 4.822.735 10.155 1.075 13.573.864 16.853 1.447 15.543 2.757-.613.613-9.53 1.433-20.749 1.907-18.728.793-24.435 1.872-19.829 3.752 1.08.442 17.17.802 35.755.802s34.676-.36 35.755-.802c3.819-1.558-.068-2.871-11.128-3.756-15.468-1.238-16.757-3.033-3.294-4.584 5.838-.672 7.702-1.552 5.678-2.68-2.004-1.116-29.594-1.915-38.962-1.126m47.791 1.083-2.048.893 2.048.879c2.52 1.079 17.46 1.168 18.518.109a1.083 1.083 0 0 0 .003-1.532c-1.115-1.115-16.116-1.397-18.521-.349m-81.941 17.371c-5.644.407-10.869 1.114-11.61 1.572-3.174 1.962 1.702 3.027 17.99 3.931 16.898.938 77.94.258 83.54-.93 3.939-.835 2.921-2.755-1.919-3.622-5.891-1.056-76.022-1.813-88.001-.951" clip-rule="evenodd"/><path fill="#fff" fill-rule="evenodd" d="M144.898 116.7c-3.177.91-1.911 2.268 2.769 2.969 5.699.855 28.791.225 29.829-.814a1.09 1.09 0 0 0 .001-1.536c-.863-.865-29.822-1.415-32.599-.619m-21.423 7.383c-7.197.605-10.108 1.47-8.924 2.655.252.252 4.822.735 10.155 1.075 13.573.864 16.853 1.447 15.543 2.757-.613.613-9.53 1.433-20.749 1.907-18.728.793-24.435 1.872-19.829 3.752 1.08.442 17.17.802 35.755.802s34.676-.36 35.755-.802c3.819-1.558-.068-2.871-11.128-3.756-15.468-1.238-16.757-3.033-3.294-4.584 5.838-.672 7.702-1.552 5.678-2.68-2.004-1.116-29.594-1.915-38.962-1.126m47.791 1.083-2.048.893 2.048.879c2.52 1.079 17.46 1.168 18.518.109a1.083 1.083 0 0 0 .003-1.532c-1.115-1.115-16.116-1.397-18.521-.349m-81.941 17.371c-5.644.407-10.869 1.114-11.61 1.572-3.174 1.962 1.702 3.027 17.99 3.931 16.898.938 77.94.258 83.54-.93 3.939-.835 2.921-2.755-1.919-3.622-5.891-1.056-76.022-1.813-88.001-.951" clip-rule="evenodd"/><path fill="#000" fill-rule="evenodd" d="M67.057 155.232c-4.615-9.981-5.06-20.522-4.321-31.496a65.6 65.6 0 0 1 10.138-30.854 65.4 65.4 0 0 1 23.69-22.18 65.3 65.3 0 0 1 31.414-8.048 65.3 65.3 0 0 1 30.853 7.742 65.42 65.42 0 0 1 27.916 29.02l.01.022.091.187c.813 1.614 1.437 2.936 1.779 4.022 1.221 3.886-1.166 4.766-11.4 5.224-10.747.481-13.843 1.162-12.3 2.706.361.361 6.23.886 13.04 1.167l.256.011c8.835.363 12.526.515 14.065 3.509 1.105 2.15 1.1 5.765 1.092 11.974v.25c-.013 10.204-1.648 19.438-4.488 25.341-1.605 3.336-5.15 5.703-10.883 7.228a49 49 0 0 1-4.876 1.015c-4.406.706-8.66 1.64-9.454 2.077-2.582 1.421 2.065 2.937 12.087 3.942 5.178.519 9.708 1.239 10.069 1.6 1.878 1.878-3.02 3.044-16.3 3.882-18.241 1.151-24.626 2.046-25.111 3.52-.527 1.605 2.487 2.253 16.571 3.563 12.663 1.178 16.927 2.173 16.927 3.946 0 2.238-7.364 2.605-52.224 2.605-36.634 0-47.432-.297-50.526-1.39-2.506-.886-3.579-1.746-2.954-2.371 1.38-1.379 17.862-2.828 33-2.901 12.668-.06 26.211-1.287 27.406-2.482 2.075-2.076-3.702-3.01-26.055-4.213l-6.944-.372c-15.929-.851-17.912-.957-18.031-1.485a.6.6 0 0 1 .027-.254c.021-.088.045-.185.045-.294 0-2.03 4.9-2.459 35.328-3.095 29.443-.616 37.856-1.476 34.53-3.532-.584-.36-6.676-1.115-13.538-1.675-6.861-.56-12.934-1.302-13.495-1.649-3.053-1.887 2.836-2.831 21.652-3.47 19.51-.662 22.831-1.099 21.15-2.779-2.323-2.324-73.685-2.337-76.008-.013-1.447 1.446.656 2.044 10.567 3.003 19.348 1.873 13.638 4.396-9.946 4.396-8.18 0-13.448-.21-16.974-.9-4.017-.785-6.486-3.496-7.875-6.499m80.61-35.563c-4.68-.701-5.946-2.059-2.769-2.969 2.777-.796 31.736-.246 32.599.619a1.09 1.09 0 0 1-.001 1.536c-1.038 1.039-24.13 1.669-29.829.814m-33.116 7.069c-1.184-1.185 1.727-2.05 8.924-2.655 9.368-.789 36.958.01 38.962 1.126 2.024 1.128.16 2.008-5.678 2.68-13.463 1.551-12.174 3.346 3.294 4.584 11.06.885 14.947 2.198 11.128 3.756-1.079.442-17.169.802-35.755.802-18.585 0-34.675-.36-35.755-.802-4.606-1.88 1.101-2.959 19.829-3.752 11.219-.474 20.136-1.294 20.749-1.907 1.31-1.31-1.97-1.893-15.543-2.757-5.333-.34-9.903-.823-10.155-1.075m54.667-.679 2.048-.893c2.405-1.048 17.406-.766 18.521.349a1.08 1.08 0 0 1-.003 1.532c-1.058 1.059-15.998.97-18.518-.109zm-91.502 18.05c.74-.458 5.965-1.165 11.609-1.572 11.979-.862 82.11-.105 88.001.951 4.84.867 5.858 2.787 1.919 3.622-5.6 1.188-66.642 1.868-83.54.93-16.288-.904-21.164-1.969-17.99-3.931" clip-rule="evenodd"/><path fill="#fff" fill-rule="evenodd" d="M211.712 156.97c3.103-9.031 4.788-18.727 4.788-28.816C216.5 79.19 176.865 39.5 128 39.5c-48.88 0-88.5 39.69-88.5 88.654a88.6 88.6 0 0 0 5.01 29.46c.99 2.817-3.346 6.002-3.346 6.002s-1.29 1.314-1.646 1.893c-1.344 2.186.078 3.67 4.462 4.922 5.495 1.569 8.474 3.898 6.95 5.436-.598.606-3.465 2.252-6.371 3.66-9.506 4.606-7.526 6.428 9.405 8.653 6.249.82 11.812 1.772 12.363 2.113 2.12 1.309.826 3.248-3.605 5.401-9.458 4.595-5.342 6.636 17.737 8.794 8.628.806 15.97 1.749 16.316 2.094 1.298 1.298-1.508 2.481-8.358 3.526-6.784 1.034-9.912 2.439-8.521 3.83.358.358 3.323 1.331 6.587 2.161 7.993 2.032 58.842 3.056 71.022 1.43 11.284-1.506 16.321-2.953 16.321-4.689 0-1.381-1.533-1.869-9.748-3.101-2.265-.339-4.746-1.005-5.515-1.48-2.734-1.69 2.47-3.013 17.947-4.562 8.411-.843 16.087-1.836 17.057-2.208 3.101-1.19 1.9-3.544-2.845-5.578-4.844-2.076-5.985-4.544-2.598-5.62 1.105-.351 7.611-1.496 14.456-2.543 6.845-1.049 12.948-2.409 13.562-3.023 1.635-1.635-.869-3.61-7.165-5.645-9.531-3.083-9.297-5.226.893-8.146 3.21-.921 6.14-2.166 6.512-2.767.371-.602-.547-2.371-2.041-3.931 0 0-2.078-2.319-2.592-3.273-.514-.953-.658-2.207-.037-3.993m-144.655-1.738c-4.615-9.981-5.06-20.522-4.321-31.496a65.6 65.6 0 0 1 10.138-30.854 65.4 65.4 0 0 1 23.69-22.18 65.3 65.3 0 0 1 31.414-8.048 65.3 65.3 0 0 1 30.853 7.742 65.42 65.42 0 0 1 27.916 29.02l.01.022.091.187c.813 1.614 1.437 2.936 1.779 4.022 1.221 3.886-1.166 4.766-11.4 5.224-10.747.481-13.843 1.162-12.3 2.706.361.361 6.23.886 13.04 1.167l.256.011c8.835.363 12.526.515 14.065 3.509 1.105 2.15 1.1 5.765 1.092 11.974v.25c-.013 10.204-1.648 19.438-4.488 25.341-1.605 3.336-5.15 5.703-10.883 7.228a49 49 0 0 1-4.876 1.015c-4.406.706-8.66 1.64-9.454 2.077-2.582 1.421 2.065 2.937 12.087 3.942 5.178.519 9.708 1.239 10.069 1.6 1.878 1.878-3.02 3.044-16.3 3.882-18.241 1.151-24.626 2.046-25.111 3.52-.527 1.605 2.487 2.253 16.571 3.563 12.663 1.178 16.927 2.173 16.927 3.946 0 2.238-7.364 2.605-52.224 2.605-36.634 0-47.432-.297-50.526-1.39-2.506-.886-3.579-1.746-2.954-2.371 1.38-1.379 17.862-2.828 33-2.901 12.668-.06 26.211-1.287 27.406-2.482 2.075-2.076-3.702-3.01-26.055-4.213l-6.944-.372c-15.929-.851-17.912-.957-18.031-1.485a.6.6 0 0 1 .027-.254c.021-.088.045-.185.045-.294 0-2.03 4.9-2.459 35.328-3.095 29.443-.616 37.856-1.476 34.53-3.532-.584-.36-6.676-1.115-13.538-1.675-6.861-.56-12.934-1.302-13.495-1.649-3.053-1.887 2.836-2.831 21.652-3.47 19.51-.662 22.831-1.099 21.15-2.779-2.323-2.324-73.685-2.337-76.008-.013-1.447 1.446.656 2.044 10.567 3.003 19.348 1.873 13.638 4.396-9.946 4.396-8.18 0-13.448-.21-16.974-.9-4.017-.785-6.486-3.496-7.875-6.499m32.665 44.941c-11.78-1.493-13.462-4.151-3.401-5.375 2.922-.355 15.451-.702 27.841-.77q44.73-.246 35.182 5.09c-3.099 1.733-48.005 2.527-59.622 1.055" clip-rule="evenodd"/><path fill="#000" fill-rule="evenodd" d="M256 128c0 70.692-57.308 128-128 128S0 198.692 0 128 57.308 0 128 0s128 57.308 128 128m-39.5.154c0 10.089-1.685 19.785-4.788 28.816-.621 1.786-.477 3.04.037 3.993.514.954 2.592 3.273 2.592 3.273 1.494 1.56 2.412 3.329 2.041 3.931-.372.601-3.302 1.846-6.512 2.767-10.19 2.92-10.424 5.063-.893 8.146 6.296 2.035 8.8 4.01 7.165 5.645-.614.614-6.717 1.974-13.562 3.023-6.845 1.047-13.351 2.192-14.456 2.543-3.387 1.076-2.246 3.544 2.598 5.62 4.745 2.034 5.946 4.388 2.845 5.578-.97.372-8.646 1.365-17.057 2.208-15.477 1.549-20.681 2.872-17.947 4.562.769.475 3.25 1.141 5.515 1.48 8.215 1.232 9.748 1.72 9.748 3.101 0 1.736-5.037 3.183-16.321 4.689-12.18 1.626-63.03.602-71.022-1.43-3.264-.83-6.229-1.803-6.587-2.161-1.39-1.391 1.737-2.796 8.52-3.83 6.851-1.045 9.657-2.228 8.359-3.526-.346-.345-7.688-1.288-16.316-2.094-23.079-2.158-27.195-4.199-17.737-8.794 4.431-2.153 5.726-4.092 3.605-5.401-.551-.341-6.114-1.293-12.363-2.113-16.93-2.225-18.911-4.047-9.405-8.653 2.906-1.408 5.773-3.054 6.371-3.66 1.524-1.538-1.455-3.867-6.95-5.436-4.383-1.252-5.806-2.736-4.462-4.922.356-.579 1.646-1.893 1.646-1.893s4.336-3.185 3.346-6.002a88.6 88.6 0 0 1-5.01-29.46C39.5 79.19 79.12 39.5 128 39.5c48.865 0 88.5 39.69 88.5 88.654" clip-rule="evenodd"/><path fill="#000" d="M96.32 194.798c-10.06 1.224-8.377 3.882 3.402 5.375 11.617 1.472 56.523.678 59.622-1.055q9.548-5.336-35.182-5.09c-12.39.068-24.919.415-27.841.77"/></svg>
